X: 123204
T: TORRY BURN LASSES
P: Same Figure.
%R: reel
B: James Kerr "Merry Melodies" v.1 p.23 s.2 #4
Z: 2017 John Chambers <jc:trillian.mit.edu>
M: C
L: 1/8
K: G
|:\
vG2(BG) BddB | c2ec egg2 |\
G2(BG) Bddg | edcB A2G2 :|\
g2(bg) afed | edef gdBd |
g2(bg) afed | edef g2(ga) |\
bagf gfed | edef gdBd |\
cBcd efge | dBGB A2G2 |]

% %newpage
%%sep 1 1 500
%%sep 1 1 500
%%center SCOTCH REELS FOR QUADRILLES AND COUNTRY DANCES.

%%sep 1 1 500
%%sep 1 1 500

